img/repair.svg

<svg fill="none" height="28" viewBox="0 0 28 28" width="28" xmlns="http://www.w3.org/2000/svg"><path d="m26.4056 21.1434c-.5815-.4092-1.2527-.629-1.9306-.6649-2.555-1.6731-4.2287-2.929-5.2058-3.9061l-3.0017-3.0017 1.8215-2.0389c.3452.1949.716.3233 1.0869.3762.2798.0466.4664.0466.653.0466.3732 0 .4664 0 .8396.3265-.1866.14-.2799.3732-.2799.6064s.0933.5131.2799.6996l1.6325 1.6326c.2332.2798.6063.4197.9795.4197s.7463-.1399.9795-.4664l3.3117-3.3117c.2799-.2332.4198-.6063.4198-.9795 0-.3731-.1399-.6996-.4198-.97948l-1.6325-1.63253c-.1866-.18655-.4198-.27986-.6531-.27986-.2332 0-.4664.13993-.653.27986-.3731-.32648-.3731-.41979-.3731-.79295 0-.18656 0-.41979-.0933-.69965-.0933-.65303-.4198-1.30599-.9329-1.81909l-1.6792-1.67916c-.9795-.9795-1.4459-1.44592-2.7053-2.00564-2.7053-1.259365-5.4572-1.02613-9.46857.79296-.23323.0933-.32649.27986-.27986.51309s.23323.37316.46641.37316h.60632c2.0523 0 3.1251 0 4.9909 1.86572.8169.81695.8405 2.06959.1085 2.99121-.0986.01487-.1737.05915-.2485.13387l-2.0719 2.31259-1.5662-1.56627c-1.72149-1.72146-2.93232-3.35017-3.86422-5.16373-.04892-.91769-.41717-1.77629-1.07997-2.4391-.7929-.792896-1.91234-1.1660603-3.03178-1.0727555-.13993.046625-.27986.1399295-.32648.2332345-.09331.13993-.09331.326484 0 .466414l1.30599 2.332177c-.27986.60635-.93288.97951-1.58585.93289l-1.35267-2.23893c-.04663-.13993-.23324-.23324-.37317-.23324-.139928-.04662-.279858.04663-.373163.18656-1.119438 1.67915-.69964847 3.91803.979513 5.08409.57852.41323 1.23028.64302 1.89036.69014.00738.00312.01432.00694.02197.00951 1.81909.93288 3.45162 2.14557 5.1774 3.87141l1.70587 1.6671-9.914988 11.0666c-.373164.3731-.55971884.8862-.55971884 1.3993s.18655484.9795.55971884 1.3526l.653028.6531c.37316.3264.83957.513 1.30599.513.46641 0 .97951-.1865 1.35267-.5597l9.9037-11.0857 2.8765 2.8765c.9786.9786 2.2366 2.7021 3.9134 5.217.0601.8977.4275 1.7358 1.0775 2.3858.6996.6997 1.6325 1.0728 2.612 1.0728h.3732c.1399 0 .2798-.0933.3731-.2332s.0933-.3265 0-.4664l-1.3526-2.2855c.3265-.6063.9329-.9795 1.6325-.9329l1.306 2.2389c.0466.1399.2332.2332.3732.2332.1865-.0466.3264-.0933.4197-.2332 1.1194-1.6792.653-3.9181-.9795-5.0842zm-10.6347-17.07139c-1.4926-1.44593-2.612-1.91239-3.8714-2.05232 2.6587-.83958 4.6177-.79296 6.5767.0933 1.1195.46642 1.4926.83958 2.4721 1.81909l1.6792 1.67915c.3731.37317.6063.83958.653 1.306.0466.23323.0466.41979.0466.55972 0 .51309.0467.8862.6064 1.44592.1865.18655.4664.27986.6996.27986.2799 0 .5131-.09331.653-.27986l1.6326 1.63253c.0933.0933.1399.1866.1399.3265s-.0466.2332-.1399.3265l-3.3117 3.3117c-.1866.1865-.4664.1865-.653 0l-1.6326-1.6326c.1866-.1399.2799-.3731.2333-.653 0-.2332-.0933-.5131-.2799-.6996-.5597-.5598-.9329-.6064-1.4459-.6064-.1399 0-.3265 0-.5597-.0466-.5131-.0466-.9329-.2799-1.306-.653l-2.0057-2.00568c1.0261-1.25931.9329-3.03177-.1866-4.15121zm-14.64597-1.11944.97951 1.67916c.0933.13993.23323.23323.37316.23323h.23324c1.07281.04663 2.05232-.51309 2.51873-1.44592l.09331-.23324c.0933-.13993.0933-.27986 0-.41979l-1.02619-1.772457c.55972.093307 1.07281.373167 1.4926.792957.4809.52096.7888 1.17983.807 1.88757-.00902.03591-.0141.07456-.0141.11812 0 .21602-.02607.42673-.07434.62985-.17595.67538-.59787 1.26423-1.18503 1.65571-.93288.60634-2.19225.60634-3.12508-.04663-.9795-.69976-1.399294-1.95912-1.07281-3.07856zm8.30248 7.74273c-1.3993-1.44589-2.79859-2.56533-4.2912-3.45159.23324-.0933.5131-.23323.74628-.37316.69965-.46642 1.16606-1.07282 1.44592-1.81909.8862 1.4926 2.00564 2.8919 3.40489 4.2912l1.6021 1.60204-1.2563 1.4023zm-6.20353 16.0453c-.37317.3732-.97951.4198-1.35268.0467l-.65302-.6064c-.18655-.1865-.279858-.4198-.279858-.653 0-.2799.093308-.5131.326488-.7463l.26417-.2955.66871.6687c.0933.0933.18655.1399.32648.1399s.23324-.0466.32649-.1399c.18655-.1866.18655-.4664 0-.653l-.70534-.7054.61641-.6896.74195.7419c.09331.0933.18656.14.32649.14s.23323-.0467.32648-.14c.18656-.1865.18656-.4664 0-.653l-.77847-.7785 11.99752-13.42305 1.9591 1.95905-1.9249 2.1535c-.055.0233-.1036.0589-.1521.1074l-1.8657 2.0989c-.0533.0533-.0908.1143-.1136.1784zm11.19492-11.1005 1.2765-1.4288 3.0141 3.0141c.8396.8862 2.2855 2.0056 4.3844 3.4049-.2798.0933-.5597.2333-.8395.4198-.5787.3617-.9886.8639-1.2742 1.419-.0042.0079-.0081.016-.0122.024-.0169.0334-.0335.067-.0495.1007-.023.0479-.0449.0962-.0658.1451-.0144.0331-.0286.0661-.0421.0994-.0019.0048-.0038.0097-.0057.0145-.0147.0365-.0293.073-.0431.1097-.2649-.3886-.5198-.7553-.765-1.1007l.6251-.6251c.1865-.1865.1865-.4664 0-.653-.1866-.1865-.4664-.1865-.653 0l-.52.52c-.1938-.263-.3811-.5111-.5616-.7444l.4286-.4286c.1865-.1866.1865-.4664 0-.653-.1866-.1866-.4664-.1866-.653 0l-.3561.356c-.3428-.4131-.659-.7648-.9499-1.0557zm12.4998 9.3281-.9795-1.6792c-.0933-.1399-.2332-.2332-.3731-.2332h-.2333c-1.0728-.0933-2.0523.5131-2.5187 1.4459l-.0933.2332c-.0933.14-.0933.2799 0 .4198l1.0261 1.7725c-.5597-.0933-1.0728-.3732-1.4926-.793-.4718-.5111-.7767-1.1549-.8054-1.8473.008-.0341.0125-.0707.0125-.1117 0-.5909.1875-1.1441.5145-1.6127.2008-.2795.4521-.5242.7448-.7194.4664-.3265.9795-.4664 1.5393-.4664.5597 0 1.1194.1865 1.5858.5131.9797.6996 1.3995 1.9589 1.0729 3.0784z" fill="#e3b873"/></svg>

<svg width="28" height="28" viewBox="0 0 28 28" fill="none" xmlns="http://www.w3.org/2000/svg">
<path d="M26.4056 21.1434C25.8241 20.7342 25.1529 20.5144 24.475 20.4785C21.92 18.8054 20.2463 17.5495 19.2692 16.5724L16.2675 13.5707L18.089 11.5318C18.4342 11.7267 18.805 11.8551 19.1759 11.908C19.4557 11.9546 19.6423 11.9546 19.8289 11.9546C20.2021 11.9546 20.2953 11.9546 20.6685 12.2811C20.4819 12.4211 20.3886 12.6543 20.3886 12.8875C20.3886 13.1207 20.4819 13.4006 20.6685 13.5871L22.301 15.2197C22.5342 15.4995 22.9073 15.6394 23.2805 15.6394C23.6537 15.6394 24.0268 15.4995 24.26 15.173L27.5717 11.8613C27.8516 11.6281 27.9915 11.255 27.9915 10.8818C27.9915 10.5087 27.8516 10.1822 27.5717 9.90232L25.9392 8.26979C25.7526 8.08324 25.5194 7.98993 25.2861 7.98993C25.0529 7.98993 24.8197 8.12986 24.6331 8.26979C24.26 7.94331 24.26 7.85 24.26 7.47684C24.26 7.29028 24.26 7.05705 24.1667 6.77719C24.0734 6.12416 23.7469 5.4712 23.2338 4.9581L21.5546 3.27894C20.5751 2.29944 20.1087 1.83302 18.8493 1.2733C16.144 0.013935 13.3921 0.24717 9.38073 2.06626C9.1475 2.15956 9.05424 2.34612 9.10087 2.57935C9.1475 2.81258 9.3341 2.95251 9.56728 2.95251H10.1736C12.2259 2.95251 13.2987 2.95251 15.1645 4.81823C15.9814 5.63518 16.005 6.88782 15.273 7.80944C15.1744 7.82431 15.0993 7.86859 15.0245 7.94331L12.9526 10.2559L11.3864 8.68963C9.66491 6.96817 8.45408 5.33946 7.52218 3.5259C7.47326 2.60821 7.10501 1.74961 6.44221 1.0868C5.64931 0.293904 4.52987 -0.0792603 3.41043 0.0140445C3.2705 0.0606695 3.13057 0.153974 3.08395 0.247279C2.99064 0.387209 2.99064 0.573763 3.08395 0.713693L4.38994 3.04587C4.11008 3.65222 3.45706 4.02538 2.80409 3.97876L1.45142 1.73983C1.40479 1.5999 1.21818 1.50659 1.07825 1.50659C0.938322 1.45997 0.798392 1.55322 0.705087 1.69315C-0.414351 3.3723 0.00543853 5.61118 1.6846 6.77724C2.26312 7.19047 2.91488 7.42026 3.57496 7.46738C3.58234 7.4705 3.58928 7.47432 3.59693 7.47689C5.41602 8.40977 7.04855 9.62246 8.77433 11.3483L10.4802 13.0154L0.565212 24.082C0.192048 24.4551 0.00549316 24.9682 0.00549316 25.4813C0.00549316 25.9944 0.192048 26.4608 0.565212 26.8339L1.21824 27.487C1.5914 27.8134 2.05781 28 2.52423 28C2.99064 28 3.50374 27.8135 3.8769 27.4403L13.7806 16.3546L16.6571 19.2311C17.6357 20.2097 18.8937 21.9332 20.5705 24.4481C20.6306 25.3458 20.998 26.1839 21.648 26.8339C22.3476 27.5336 23.2805 27.9067 24.26 27.9067C24.3999 27.9067 24.5399 27.9067 24.6332 27.9067C24.7731 27.9067 24.913 27.8134 25.0063 27.6735C25.0996 27.5336 25.0996 27.347 25.0063 27.2071L23.6537 24.9216C23.9802 24.3153 24.5866 23.9421 25.2862 23.9887L26.5922 26.2276C26.6388 26.3675 26.8254 26.4608 26.9654 26.4608C27.1519 26.4142 27.2918 26.3675 27.3851 26.2276C28.5045 24.5484 28.0381 22.3095 26.4056 21.1434ZM15.7709 4.07201C14.2783 2.62608 13.1589 2.15962 11.8995 2.01969C14.5582 1.18011 16.5172 1.22673 18.4762 2.11299C19.5957 2.57941 19.9688 2.95257 20.9483 3.93208L22.6275 5.61123C23.0006 5.9844 23.2338 6.45081 23.2805 6.91723C23.3271 7.15046 23.3271 7.33702 23.3271 7.47695C23.3271 7.99004 23.3738 8.36315 23.9335 8.92287C24.12 9.10942 24.3999 9.20273 24.6331 9.20273C24.913 9.20273 25.1462 9.10942 25.2861 8.92287L26.9187 10.5554C27.012 10.6487 27.0586 10.742 27.0586 10.8819C27.0586 11.0218 27.012 11.1151 26.9187 11.2084L23.607 14.5201C23.4204 14.7066 23.1406 14.7066 22.954 14.5201L21.3214 12.8875C21.508 12.7476 21.6013 12.5144 21.5547 12.2345C21.5547 12.0013 21.4614 11.7214 21.2748 11.5349C20.7151 10.9751 20.3419 10.9285 19.8289 10.9285C19.689 10.9285 19.5024 10.9285 19.2692 10.8819C18.7561 10.8353 18.3363 10.602 17.9632 10.2289L15.9575 8.22322C16.9836 6.96391 16.8904 5.19145 15.7709 4.07201ZM1.12493 2.95257L2.10444 4.63173C2.19774 4.77166 2.33767 4.86496 2.4776 4.86496H2.71084C3.78365 4.91159 4.76316 4.35187 5.22957 3.41904L5.32288 3.1858C5.41618 3.04587 5.41618 2.90594 5.32288 2.76601L4.29669 0.993553C4.85641 1.08686 5.3695 1.36672 5.78929 1.78651C6.27019 2.30747 6.57809 2.96634 6.59629 3.67408C6.58727 3.70999 6.58219 3.74864 6.58219 3.7922C6.58219 4.00822 6.55612 4.21893 6.50785 4.42205C6.3319 5.09743 5.90998 5.68628 5.32282 6.07776C4.38994 6.6841 3.13057 6.6841 2.19774 6.03113C1.21824 5.33137 0.798446 4.07201 1.12493 2.95257ZM9.42741 10.6953C8.02811 9.24941 6.62882 8.12997 5.13621 7.24371C5.36945 7.15041 5.64931 7.01048 5.88249 6.87055C6.58214 6.40413 7.04855 5.79773 7.32841 5.05146C8.21461 6.54406 9.33405 7.94336 10.7333 9.34266L12.3354 10.9447L11.0791 12.347L9.42741 10.6953ZM3.22388 26.7406C2.85071 27.1138 2.24437 27.1604 1.8712 26.7873L1.21818 26.1809C1.03163 25.9944 0.938322 25.7611 0.938322 25.5279C0.938322 25.248 1.03163 25.0148 1.26481 24.7816L1.52898 24.4861L2.19769 25.1548C2.29099 25.2481 2.38424 25.2947 2.52417 25.2947C2.6641 25.2947 2.75741 25.2481 2.85066 25.1548C3.03721 24.9682 3.03721 24.6884 2.85066 24.5018L2.14532 23.7964L2.76173 23.1068L3.50368 23.8487C3.59699 23.942 3.69024 23.9887 3.83017 23.9887C3.9701 23.9887 4.0634 23.942 4.15665 23.8487C4.34321 23.6622 4.34321 23.3823 4.15665 23.1957L3.37818 22.4172L15.3757 8.99415L17.3348 10.9532L15.4099 13.1067C15.3549 13.13 15.3063 13.1656 15.2578 13.2141L13.3921 15.313C13.3388 15.3663 13.3013 15.4273 13.2785 15.4914L3.22388 26.7406ZM14.4188 15.6401L15.6953 14.2113L18.7094 17.2254C19.549 18.1116 20.9949 19.231 23.0938 20.6303C22.814 20.7236 22.5341 20.8636 22.2543 21.0501C21.6756 21.4118 21.2657 21.914 20.9801 22.4691C20.9759 22.477 20.972 22.4851 20.9679 22.4931C20.951 22.5265 20.9344 22.5601 20.9184 22.5938C20.8954 22.6417 20.8735 22.69 20.8526 22.7389C20.8382 22.772 20.824 22.805 20.8105 22.8383C20.8086 22.8431 20.8067 22.848 20.8048 22.8528C20.7901 22.8893 20.7755 22.9258 20.7617 22.9625C20.4968 22.5739 20.2419 22.2072 19.9967 21.8618L20.6218 21.2367C20.8083 21.0502 20.8083 20.7703 20.6218 20.5837C20.4352 20.3972 20.1554 20.3972 19.9688 20.5837L19.4488 21.1037C19.255 20.8407 19.0677 20.5926 18.8872 20.3593L19.3158 19.9307C19.5023 19.7441 19.5023 19.4643 19.3158 19.2777C19.1292 19.0911 18.8494 19.0911 18.6628 19.2777L18.3067 19.6337C17.9639 19.2206 17.6477 18.8689 17.3568 18.578L14.4188 15.6401ZM26.9186 24.9682L25.9391 23.289C25.8458 23.1491 25.7059 23.0558 25.566 23.0558H25.3327C24.2599 22.9625 23.2804 23.5689 22.814 24.5017L22.7207 24.7349C22.6274 24.8749 22.6274 25.0148 22.7207 25.1547L23.7468 26.9272C23.1871 26.8339 22.674 26.554 22.2542 26.1342C21.7824 25.6231 21.4775 24.9793 21.4488 24.2869C21.4568 24.2528 21.4613 24.2162 21.4613 24.1752C21.4613 23.5843 21.6488 23.0311 21.9758 22.5625C22.1766 22.283 22.4279 22.0383 22.7206 21.8431C23.187 21.5166 23.7001 21.3767 24.2599 21.3767C24.8196 21.3767 25.3793 21.5632 25.8457 21.8898C26.8254 22.5894 27.2452 23.8487 26.9186 24.9682Z" fill="#E3B873"/>
</svg>
